contributed-vectors/scb_easy.svg

<svg width="192" height="192" viewBox="0 0 192 192" fill="none" xmlns="http://www.w3.org/2000/svg">
<g clip-path="url(#clip0)">
<path d="M172.5 29.1V162.9C172.5 168.2 168.2 172.5 162.9 172.5H29.1C23.8 172.5 19.5 168.2 19.5 162.9V29.1C19.5 23.8 23.8 19.5 29.1 19.5H163C168.2 19.5 172.5 23.8 172.5 29.1Z" fill="#8C72BD"/>
<path d="M131.5 123.14L121.473 83.966L95 59.9L68.5275 83.966L58.5 123.14L77.4854 132.098H92.4597V118.728C92.4597 118.728 64.6502 133.435 71.87 100.545C74.2766 89.5813 87.1117 75.1418 94.3315 70.9971C94.5989 70.8637 94.7327 70.7298 95 70.5959C102.22 74.0721 115.723 89.1801 118.13 100.411C125.484 133.435 97.674 118.728 97.674 118.728V132.098H112.648L131.5 123.14Z" fill="#F9DE81"/>
</g>
<defs>
<clipPath id="clip0">
<rect width="192" height="192" fill="white"/>
</clipPath>
</defs>
</svg>

<svg xmlns="http://www.w3.org/2000/svg" width="192" height="192" fill="none"><g clip-path="url(#a)"><path fill="#8C72BD" d="M172.5 29.1v133.8c0 5.3-4.3 9.6-9.6 9.6H29.1c-5.3 0-9.6-4.3-9.6-9.6V29.1c0-5.3 4.3-9.6 9.6-9.6H163c5.2 0 9.5 4.3 9.5 9.6Z"/><path fill="#F9DE81" d="m131.5 123.14-10.027-39.174L95 59.9 68.528 83.966 58.5 123.14l18.985 8.958H92.46v-13.37s-27.81 14.707-20.59-18.183c2.407-10.964 15.242-25.403 22.462-29.548.267-.133.4-.267.668-.401 7.22 3.476 20.723 18.584 23.13 29.815 7.354 33.024-20.456 18.317-20.456 18.317v13.37h14.974l18.852-8.958Z"/></g><defs><clipPath id="a"><path fill="#fff" d="M0 0h192v192H0z"/></clipPath></defs></svg>
